nextcloudappstore/core/static/assets/img/icons/categories/tools.svg

<svg width="20" height="20" fill="none" style="-webkit-print-color-adjust:exact" version="1.1" viewBox="-0 0 20 20" xmlns="http://www.w3.org/2000/svg"><g rx="0" ry="0" fill="#000"><g class="fills"><path rx="0" ry="0" d="m18.092 16.908-1.184 1.184c-0.325 0.323-0.85 0.323-1.175 0l-9.9-9.884c-0.271 0.079-0.551 0.121-0.833 0.125-1.077 0-2.086-0.521-2.711-1.397-0.626-0.877-0.789-2.001-0.439-3.019l2.117 2.116 2.066-2.066-2.116-2.117c1.018-0.35 2.142-0.187 3.019 0.439 0.876 0.625 1.397 1.634 1.397 2.711-4e-3 0.282-0.046 0.562-0.125 0.833l9.884 9.9c0.323 0.325 0.323 0.85 0 1.175zm-16.184-1.175c-0.323 0.325-0.323 0.85 0 1.175l1.184 1.184c0.325 0.323 0.85 0.323 1.175 0l4.558-4.55-2.358-2.359m10.2-9.516-3.334 1.666v1.667l-1.808 1.808 1.667 1.667 1.808-1.808h1.667l1.666-3.334z" fill="#007bbd"/></g></g></svg>

<svg xmlns:xlink="http://www.w3.org/1999/xlink" width="20" xmlns="http://www.w3.org/2000/svg" height="20" id="screenshot-db15cf86-6f9e-8025-8002-bbab9ed6fe01" viewBox="-0 0 20 20" style="-webkit-print-color-adjust: exact;" fill="none" version="1.1"><g id="shape-db15cf86-6f9e-8025-8002-bbab9ed6fe01" rx="0" ry="0" style="fill: rgb(0, 0, 0);"><g id="shape-db15cf86-6f9e-8025-8002-bbab9ed6fe03"><g class="fills" id="fills-db15cf86-6f9e-8025-8002-bbab9ed6fe03"><path rx="0" ry="0" d="M18.092,16.908L16.908,18.092C16.583,18.415,16.058,18.415,15.733,18.092L5.833,8.208C5.562,8.287,5.282,8.329,5.000,8.333C3.923,8.333,2.914,7.812,2.289,6.936C1.663,6.059,1.500,4.935,1.850,3.917L3.967,6.033L4.408,5.592L5.592,4.408L6.033,3.967L3.917,1.850C4.935,1.500,6.059,1.663,6.936,2.289C7.812,2.914,8.333,3.923,8.333,5.000C8.329,5.282,8.287,5.562,8.208,5.833L18.092,15.733C18.415,16.058,18.415,16.583,18.092,16.908ZM1.908,15.733C1.585,16.058,1.585,16.583,1.908,16.908L3.092,18.092C3.417,18.415,3.942,18.415,4.267,18.092L8.825,13.542L6.467,11.183M16.667,1.667L13.333,3.333L13.333,5.000L11.525,6.808L13.192,8.475L15.000,6.667L16.667,6.667L18.333,3.333Z" style="fill: rgb(0, 123, 189); fill-opacity: 1;"/></g></g></g></svg>
